X:1
T:Williamsburg Serenade
L:1/8
Q:1/4=125
M:3/4
K:C
!mf! (uCE) |: G4 (FA) | A4 (cA) | G2 (GE) (FD) | E2 C2 (CE) |
G4 (FA) |"^\n" A4 (cA) | G2 (GE) (FD) | C4 (CE) | G4 (FA) | A4 (cA) |
G2 (GE) (FD) | E2 C2 (CE) | G4 (FA) | A4 (cA) | G2 (GE) (FD) | C4 (Bd) |
G2 G2 ce | c2 c2 (Bd) | G2 G7/4(A/4 G2) | c4 (CE) | G4 (FA) | A4 (cA) |
G2 (GE) (FD) | C4 Bd | G2 G2 ce | c2 c2 Bd | G2 G7/4(A/4 G2) | c4 (CE) |
G4 (FA) | A4 (cA) | G2 (GE) (FD) | C4 G2 | (cB) cd ef | g2 g2 e2 |
f2 f2 d2 | e2 c2 G2 | (cB) cd ef | g2 e2 c2 | f2 d2 B2 |1
[C,G,Ec]4 (CE) :|2 [C,G,Ec]4 G2 || (cB) cd ef | g2 g2 e2 | f2 fe d2 |
e2 c2 G2 | (cB) cd ef | g2 e2 c2 |"_rit." f2 d2 B2 | !fermata![C,G,Ec]6 |]

